polaris-icons/icons/newicons/CircleRightMajor.svg

<svg width="20" height="20" viewBox="0 0 20 20" fill="none" xmlns="http://www.w3.org/2000/svg">
<path d="M5.99999 9.25C5.58578 9.25 5.24999 9.58579 5.24999 10C5.24999 10.4142 5.58578 10.75 5.99999 10.75H11.787L9.94889 12.7413C9.66794 13.0457 9.68692 13.5202 9.99128 13.8011C10.2956 14.0821 10.7701 14.0631 11.0511 13.7587L14.0511 10.5087C14.3163 10.2214 14.3163 9.77859 14.0511 9.49129L11.0511 6.24129C10.7701 5.93693 10.2956 5.91795 9.99128 6.1989C9.68692 6.47985 9.66794 6.95435 9.94889 7.25871L11.787 9.25H5.99999Z" fill="black"/>
<path fill-rule="evenodd" clip-rule="evenodd" d="M9.99999 18C5.58171 18 1.99999 14.4183 1.99999 10C1.99999 5.58172 5.58171 2 9.99999 2C14.4183 2 18 5.58172 18 10C18 14.4183 14.4183 18 9.99999 18ZM9.99999 16.5C6.41014 16.5 3.49999 13.5898 3.49999 10C3.49999 6.41015 6.41014 3.5 9.99999 3.5C13.5898 3.5 16.5 6.41015 16.5 10C16.5 13.5899 13.5898 16.5 9.99999 16.5Z" fill="black"/>
</svg>

<svg viewBox="0 0 20 20" fill="none" xmlns="http://www.w3.org/2000/svg"><path d="M6 9.25a.75.75 0 0 0 0 1.5h5.787l-1.838 1.991a.75.75 0 1 0 1.102 1.018l3-3.25a.75.75 0 0 0 0-1.018l-3-3.25a.75.75 0 0 0-1.102 1.018l1.838 1.991h-5.787Z" fill="#000"/><path fill-rule="evenodd" clip-rule="evenodd" d="M10 18a8 8 0 1 1 0-16 8 8 0 0 1 0 16Zm0-1.5a6.5 6.5 0 1 1 0-13 6.5 6.5 0 0 1 0 13Z" fill="#000"/></svg>
